X:16
T:Hanter Dro De Storvan
R:jig
M:6/8
L:1/8
K:Emin
|: (Bc/2B/2 GA) BA|(Bc/2B/2 GA) BA|(Bc/2B/2 GA) B2 :|
|: (Bc/2B/2 AB) G2| BA/2G/2 FA GE |(Bc/2B/2 AB) G2| BA/2G/2 FG E2 :|
|: EF/2G/2 AG E2 | EF/2G/2 BA GF | EF/2G/2 AG E2 | EF/2G/2 BA G2 :|
|: EF/2G/2 EB B2 | AG/2F/2 EE/2F/2 ED | EF/2G/2 BA G2 | E/2F/2G/2E/2 AA/2G/2 E2:|
